src/images/exp-dimmed.svg

<svg width="151" height="29" viewBox="0 0 151 29" fill="none" xmlns="http://www.w3.org/2000/svg">
<path d="M18.1172 16.5564H6.62417C6.7177 18.167 7.84873 19.1288 9.60666 19.1288C10.8941 19.1288 11.7416 18.7568 12.0558 17.9825H18.0222C17.4567 21.2355 14.16 23.3119 9.60666 23.3119C3.98655 23.3104 0.469238 20.3674 0.469238 15.1C0.469238 9.92492 4.04939 6.82764 9.48099 6.82764C14.6627 6.82764 18.2735 9.89464 18.2735 14.2954C18.2735 15.224 18.2429 15.6566 18.1172 16.5564ZM12.1186 13.2097C12.0865 11.5356 11.1454 10.5132 9.41815 10.5132C7.72306 10.5132 6.68555 11.6293 6.62417 13.2097H12.1186Z" fill="#555555"/>
<path d="M22.606 15.0069L17.1101 7.38477H24.3318L26.5296 11.3198L28.7273 7.38477H35.949L30.4531 15.0069L36.0425 22.7847H28.8209L26.5281 18.6636L24.2353 22.7847H17.0137L22.606 15.0069Z" fill="#555555"/>
<path d="M55.5462 15.1C55.5462 19.9334 52.6266 23.2182 48.4809 23.2182C45.9996 23.2182 44.2417 21.8858 43.5827 20.4914V28.6716H37.4277V7.38422H43.5827V9.6769C44.2739 8.18882 46.0946 6.9502 48.5759 6.9502C52.6573 6.9502 55.5462 10.1729 55.5462 15.1ZM49.1706 15.1C49.1706 13.1794 47.9768 11.847 46.2495 11.847C44.5223 11.847 43.3284 13.1794 43.3284 15.1C43.3284 17.0207 44.5223 18.3848 46.2495 18.3848C47.9461 18.3833 49.1706 17.0207 49.1706 15.1Z" fill="#555555"/>
<path d="M57.02 3.54158C57.02 1.71464 58.4652 0.226562 60.4438 0.226562C62.3902 0.226562 63.8661 1.71464 63.8661 3.54158C63.8661 5.33824 62.3902 6.8566 60.4438 6.8566C58.4652 6.85804 57.02 5.33968 57.02 3.54158ZM57.3663 7.38435H63.5213V22.7843H57.3663V7.38435Z" fill="#555555"/>
<path d="M66.4746 7.38424H72.6295V10.8233C73.1951 8.40657 75.0158 7.07422 77.1201 7.07422C77.6534 7.07422 77.9048 7.10594 78.2818 7.1665V12.8982C77.6856 12.8045 77.3393 12.7742 76.7124 12.7742C74.4196 12.7742 72.631 13.7663 72.631 17.6076V22.7827H66.4761V7.38424H66.4746Z" fill="#555555"/>
<path d="M96.5239 16.5564H85.0309C85.1244 18.167 86.2555 19.1288 88.0134 19.1288C89.3008 19.1288 90.1483 18.7568 90.4625 17.9825H96.4289C95.8634 21.2355 92.5668 23.3119 88.0134 23.3119C82.3918 23.3119 78.876 20.3689 78.876 15.1C78.876 9.92492 82.4561 6.82764 87.8877 6.82764C93.0694 6.82764 96.6803 9.89464 96.6803 14.2954C96.6803 15.224 96.6496 15.6566 96.5239 16.5564ZM90.5254 13.2097C90.4932 11.5356 89.5521 10.5132 87.8249 10.5132C86.1298 10.5132 85.0923 11.6293 85.0309 13.2097H90.5254Z" fill="#555555"/>
<path d="M98.3125 7.38422H104.467V9.64662C105.284 7.88025 107.042 6.9502 109.523 6.9502C113.355 6.9502 115.239 9.08859 115.239 13.3957V22.7841H108.958V14.9443C108.958 12.9616 108.299 12.0316 106.791 12.0316C105.252 12.0316 104.467 13.0236 104.467 15.0683V22.7841H98.3125V7.38422Z" fill="#555555"/>
<path d="M123.308 12.3422H117.122V7.38477H132.257L125.536 17.8273H131.628V22.7847H116.368L123.308 12.3422Z" fill="#555555"/>
<path d="M132.162 15.1001C132.162 10.359 134.958 6.95166 139.26 6.95166C141.678 6.95166 143.373 8.098 144.095 9.67837V7.38568H150.281V22.7856H144.095V20.4929C143.404 22.0733 141.583 23.2196 139.227 23.2196C134.863 23.2182 132.162 19.8094 132.162 15.1001ZM144.377 15.1001C144.377 13.2414 143.278 11.847 141.425 11.847C139.667 11.847 138.536 13.2111 138.536 15.1001C138.536 16.9904 139.667 18.3228 141.425 18.3228C143.278 18.3228 144.377 16.927 144.377 15.1001Z" fill="#555555"/>
</svg>

<svg width="151" height="29" fill="none" xmlns="http://www.w3.org/2000/svg"><path d="M18.117 16.556H6.624c.094 1.611 1.225 2.573 2.983 2.573 1.287 0 2.135-.372 2.449-1.146h5.966c-.565 3.252-3.862 5.329-8.415 5.329C3.987 23.31.469 20.367.469 15.1c0-5.175 3.58-8.272 9.012-8.272 5.182 0 8.792 3.067 8.792 7.467 0 .929-.03 1.362-.156 2.261zM12.12 13.21c-.033-1.674-.974-2.697-2.7-2.697-1.696 0-2.733 1.116-2.795 2.697h5.495z" fill="#555"/><path d="M22.606 15.007L17.11 7.385h7.222l2.198 3.935 2.197-3.935h7.222l-5.496 7.622 5.59 7.778H28.82l-2.293-4.121-2.293 4.12h-7.221l5.592-7.777zm32.94.093c0 4.833-2.92 8.118-7.065 8.118-2.481 0-4.24-1.332-4.898-2.727v8.18h-6.155V7.385h6.155v2.293c.69-1.488 2.512-2.727 4.993-2.727 4.081 0 6.97 3.223 6.97 8.15zm-6.375 0c0-1.92-1.194-3.253-2.922-3.253-1.727 0-2.92 1.332-2.92 3.253 0 1.92 1.193 3.285 2.92 3.285 1.697-.002 2.922-1.364 2.922-3.285zM57.02 3.542c0-1.827 1.445-3.315 3.424-3.315 1.946 0 3.422 1.488 3.422 3.315 0 1.796-1.476 3.315-3.422 3.315-1.979.001-3.424-1.517-3.424-3.315zm.346 3.842h6.155v15.4h-6.155v-15.4zm9.109 0h6.154v3.44c.566-2.417 2.387-3.75 4.491-3.75.533 0 .785.032 1.162.093v5.731a8.638 8.638 0 0 0-1.57-.124c-2.292 0-4.081.992-4.081 4.834v5.175h-6.155V7.384h-.001zm30.049 9.172H85.03c.093 1.611 1.224 2.573 2.982 2.573 1.288 0 2.135-.372 2.45-1.146h5.966c-.566 3.252-3.862 5.329-8.416 5.329-5.621 0-9.137-2.943-9.137-8.212 0-5.175 3.58-8.272 9.012-8.272 5.181 0 8.792 3.067 8.792 7.467 0 .929-.03 1.362-.156 2.261zm-5.999-3.346c-.032-1.674-.973-2.697-2.7-2.697-1.695 0-2.733 1.116-2.794 2.697h5.494zm7.787-5.826h6.155v2.263c.817-1.767 2.575-2.697 5.056-2.697 3.832 0 5.716 2.139 5.716 6.446v9.388h-6.281v-7.84c0-1.982-.659-2.912-2.167-2.912-1.539 0-2.324.992-2.324 3.036v7.716h-6.154v-15.4zm24.996 4.958h-6.186V7.385h15.135l-6.721 10.442h6.092v4.958h-15.26l6.94-10.443zm8.854 2.758c0-4.741 2.796-8.148 7.098-8.148 2.418 0 4.113 1.146 4.835 2.726V7.386h6.186v15.4h-6.186v-2.293c-.691 1.58-2.512 2.727-4.868 2.727-4.364-.002-7.065-3.41-7.065-8.12zm12.215 0c0-1.859-1.099-3.253-2.952-3.253-1.758 0-2.889 1.364-2.889 3.253 0 1.89 1.131 3.223 2.889 3.223 1.853 0 2.952-1.396 2.952-3.223z" fill="#555"/></svg>
